Yosa-Max/actions/22x22/path-intersection.svg

<?xml version="1.0" encoding="UTF-8"?>
<svg viewBox="0 0 22 22" xmlns="http://www.w3.org/2000/svg">
 <defs id="defs3051">
  <style id="current-color-scheme" type="text/css">.ColorScheme-Text {
        color:#4d4d4d;
      }
      .ColorScheme-Highlight {
        color:#3daee9;
      }</style>
 </defs>
 <path class="ColorScheme-Text" d="m12.357702 3a6.0156658 6.0156658 0 0 0-1.738903 0.4647519l0.673629 1.1671019a4.6788512 4.6788512 0 0 1 1.065274-0.2845953v-1.3472585zm1.336815 0.00261v1.3472585a4.6788512 4.6788512 0 0 1 1.065274 0.2819843l0.671018-1.1618789a6.0156658 6.0156658 0 0 0-1.736292-0.467363zm-4.232376 1.1331603a6.0156658 6.0156658 0 0 0-1.2741514 1.2741514l1.1671017 0.6710182a4.6788512 4.6788512 0 0 1 0.7754567-0.7832898l-0.668407-1.1618798zm7.127938 0-0.67102 1.1671017a4.6788512 4.6788512 0 0 1 0.783291 0.775457l1.16188-0.6684073a6.0156658 6.0156658 0 0 0-1.274151-1.2741514zm1.945169 2.4308094-1.167102 0.6736292a4.6788512 4.6788512 0 0 1 0.284596 1.0652741h1.347258a6.0156658 6.0156658 0 0 0-0.464752-1.7389033zm-11.013055 0.0026068a6.0156658 6.0156658 0 0 0-0.4673629 1.7362965h-0.044386v1.3368147h0.041775a6.0156658 6.0156658 0 0 0 5.3054827 5.3028723v0.04438h0.668408 0.668407v-0.04177a6.0156658 6.0156658 0 0 0 1.738903-0.464752l-0.673629-1.167098a4.6788512 4.6788512 0 0 1-1.065274 0.281984v-5.292428h-5.2924285a4.6788512 4.6788512 0 0 1 0.2819846-1.0652771l-1.1618799-0.6710183zm-4.5221932 1.7362965v2.673629h1.3368146v-1.3368143h1.3368146v-1.3368147h-1.3368146-1.3368146zm5.3994778 1.3368147h3.9582242v3.9556133a4.6788512 4.6788512 0 0 1-3.9582242-3.9556133zm9.2506522 0a4.6788512 4.6788512 0 0 1-0.281984 1.0652743l1.161881 0.671018a6.0156658 6.0156658 0 0 0 0.467362-1.7362923h-1.347259zm-0.953002 2.2245433a4.6788512 4.6788512 0 0 1-0.775456 0.78329l0.668407 1.16188a6.0156658 6.0156658 0 0 0 1.274151-1.274151l-1.167102-0.671019zm-13.697128 0.449086v1.336815h1.3368146v-1.336815h-1.3368146zm0 2.673629v1.336815h1.3368146v-1.336815h-1.3368146zm9.357702 1.336815v1.336814h-1.336814v1.336815h2.673629v-1.336815-1.336814h-1.336815zm-9.357702 1.336814v1.336815h1.3368146v-1.336815h-1.3368146zm2.6736292 0v1.336815h1.3368147v-1.336815h-1.3368147zm2.6736293 0v1.336815h1.3368146v-1.336815h-1.3368146z" style="fill:currentColor"/>
 <path class="ColorScheme-Text" d="m12.357702 9.6422977-3.9556133 0.028715a4.6788512 4.6788512 0 0 0 3.9556133 3.9268983v-3.955613z" style="fill-opacity:.6;fill:currentColor;stroke:naone"/>
</svg>

<svg xmlns="http://www.w3.org/2000/svg" viewBox="0 0 22 22">
  <defs id="defs3051">
    <style type="text/css" id="current-color-scheme">
      .ColorScheme-Text {
        color:#4d4d4d;
      }
      .ColorScheme-Highlight {
        color:#3daee9;
      }
      </style>
  </defs>
 <path 
     style="fill:currentColor;fill-opacity:1;stroke:none" 
     d="m 12.357702,3 a 6.0156658,6.0156658 0 0 0 -1.738903,0.4647519 l 0.673629,1.1671019 A 4.6788512,4.6788512 0 0 1 12.357702,4.3472585 L 12.357702,3 Z m 1.336815,0.00261 0,1.3472585 a 4.6788512,4.6788512 0 0 1 1.065274,0.2819843 L 15.430809,3.4699739 A 6.0156658,6.0156658 0 0 0 13.694517,3.0026109 Z M 9.462141,4.1357703 A 6.0156658,6.0156658 0 0 0 8.1879896,5.4099217 L 9.3550913,6.0809399 A 4.6788512,4.6788512 0 0 1 10.130548,5.2976501 L 9.462141,4.1357703 Z m 7.127938,0 -0.67102,1.1671017 A 4.6788512,4.6788512 0 0 1 16.70235,6.078329 L 17.86423,5.4099217 A 6.0156658,6.0156658 0 0 0 16.590079,4.1357703 Z m 1.945169,2.4308094 -1.167102,0.6736292 a 4.6788512,4.6788512 0 0 1 0.284596,1.0652741 l 1.347258,0 A 6.0156658,6.0156658 0 0 0 18.535248,6.5665797 Z M 7.5221932,6.5691865 A 6.0156658,6.0156658 0 0 0 7.0548303,8.305483 l -0.044386,0 0,1.3368147 0.041775,0 A 6.0156658,6.0156658 0 0 0 12.357702,14.94517 l 0,0.04438 0.668408,0 0.668407,0 0,-0.04177 A 6.0156658,6.0156658 0 0 0 15.43342,14.483028 L 14.759791,13.31593 a 4.6788512,4.6788512 0 0 1 -1.065274,0.281984 l 0,-5.292428 -5.2924285,0 A 4.6788512,4.6788512 0 0 1 8.6840731,7.2402089 L 7.5221932,6.5691906 Z M 3,8.305483 l 0,2.673629 1.3368146,0 0,-1.3368143 1.3368146,0 0,-1.3368147 -1.3368146,0 -1.3368146,0 z m 5.3994778,1.3368147 3.9582242,0 0,3.9556133 A 4.6788512,4.6788512 0 0 1 8.3994778,9.6422977 Z m 9.2506522,0 a 4.6788512,4.6788512 0 0 1 -0.281984,1.0652743 l 1.161881,0.671018 a 6.0156658,6.0156658 0 0 0 0.467362,-1.7362923 l -1.347259,0 z m -0.953002,2.2245433 a 4.6788512,4.6788512 0 0 1 -0.775456,0.78329 l 0.668407,1.16188 A 6.0156658,6.0156658 0 0 0 17.86423,12.53786 L 16.697128,11.866841 Z M 3,12.315927 l 0,1.336815 1.3368146,0 0,-1.336815 -1.3368146,0 z m 0,2.673629 0,1.336815 1.3368146,0 0,-1.336815 -1.3368146,0 z m 9.357702,1.336815 0,1.336814 -1.336814,0 0,1.336815 2.673629,0 0,-1.336815 0,-1.336814 -1.336815,0 z M 3,17.663185 3,19 l 1.3368146,0 0,-1.336815 -1.3368146,0 z m 2.6736292,0 0,1.336815 1.3368147,0 0,-1.336815 -1.3368147,0 z m 2.6736293,0 0,1.336815 1.3368146,0 0,-1.336815 -1.3368146,0 z"
     class="ColorScheme-Text"
     />
 <path 
     style="fill:currentColor;fill-opacity:0.6;stroke:naone" 
     class="ColorScheme-Text"
     d="m 12.357702,9.6422977 -3.9556133,0.028715 a 4.6788512,4.6788512 0 0 0 3.9556133,3.9268983 l 0,-3.955613 z"
     />
</svg>
